!!!ONB: MCCC : IWM0401_03 : Extracted Monophonic Melody
!!!COM: Mozart, Wolfgang Amadeus
!!!OPR: Piano Sonata No.1
!!!OMV: 3
!!!SCT: K.279 ; K⁶.189d
!!!ODT: 1774///
**kern
*thru
*staff1
*>A
*clefG2
*k[]
*C:
*M2/4
*MM132
8g
=1
2cc
=2
2ff
=3
16ee
16gg
16ff
16ee
16aa
16ff
16dd
16cc
=4
16b
16cc
16dd
16b
16a
16g
16f#
16g
=5
2c
=6
2f
=7
16e
16g
16cc
16g
16f#
16g
16f
16g
=8
16e
16g
16cc
16g
16f#
16g
16f
16g
=9
16e
16g
16c
16e
16d
16f
16B
16d
=10
4c
8r
8g
=11
16cc
16g
16ee
16cc
16gg
16ff#
16gg
16ee
=12
16ee
16dd
16cc#
16dd
16cc#
16dd
16cc#
16dd
=13
16gg
16aa
16bb
16ff#
16gg
16dd
16ee
16b
=14
16dd
16cc
16b
16cc
16b
16cc
16b
16cc
=15
16aa
16bb
16ccc
16aa
16ff#
16ee
16dd
16cc
=16
16cc
16b
16a#
16b
16cc
16b
16a#
16b
=17
16a
16cc
16ee
16dd
16cc
16b
16a
16g
=18
8f#
8r
8ff#
8gg
=19
8aa
8bb
8ccc
8bb
=20
8aa
8r
8f#
8g
=21
8a
8b
8cc
8b
=22
4a
8r
8dd
=23
8dd
8dd
8dd
8dd
=24
4.gg
8ff#
=25
8b
8b
8b
8b
=26
4.ee
8dd
=27
8g
8g
8g
8g
=28
4cc
8r
8b
=29
4ee
8r
8g
=30
4f#
8r
8b-
=31
4a
8r
8B-
=32
4A
4r
=33
2r
=34
8r
16gg
16ccc
16bb
16ff#
16ee
16aa
=35
16gg
16dd
16cc
16ff#
16ee
16b
16a
16dd
=36
16cc
16g
16f#
16b
16a
16e
16d
16g
=37
8r
8ee
8dd
8a
=38
4g
8cc
8r
=39
8b
8r
8a
8r
=40
8g
8r
8cc
8cc
=41
8b
8b
8a
8a
=42
8dd
8r
8cc
8cc
=43
8b
8b
8a
8a
=44
8dd
8r
16cc
16dd
16ee
16cc
=45
16b
16cc
16dd
16b
16a
16b
16cc
16a
=46
16g
16gg
16bb
16aa
16gg
16ff#
16ee
16dd
=47
4cc#
8cc
8b
=48
8a
8r
16ee
16ccc
16bb
16ccc
=49
16dd
16bb
16aa
16bb
16dd
16aa
16gg
16aa
=50
16gg
16g
16b
16a
16g
16f#
16e
16d
=51
4c#
8c
8B
=52
8A
8r
16e
16cc
16b
16cc
=53
16d
16b
16a
16b
16d
16a
16g
16a
=54
16g
16d
16g
16b
16dd
16cc
16a
16f#
=55
16g
16gg
16dd
16b
16dd
16cc
16a
16f#
=56
4g
8r
*>A
*M2/4
8g
=57
2cc
=58
2ff
=59
16ee
16gg
16ff
16ee
16aa
16ff
16dd
16cc
=60
16b
16cc
16dd
16b
16a
16g
16f#
16g
=61
2c
=62
2f
=63
16e
16g
16cc
16g
16f#
16g
16f
16g
=64
16e
16g
16cc
16g
16f#
16g
16f
16g
=65
16e
16g
16c
16e
16d
16f
16B
16d
=66
4c
8r
8g
=67
16cc
16g
16ee
16cc
16gg
16ff#
16gg
16ee
=68
16ee
16dd
16cc#
16dd
16cc#
16dd
16cc#
16dd
=69
16gg
16aa
16bb
16ff#
16gg
16dd
16ee
16b
=70
16dd
16cc
16b
16cc
16b
16cc
16b
16cc
=71
16aa
16bb
16ccc
16aa
16ff#
16ee
16dd
16cc
=72
16cc
16b
16a#
16b
16cc
16b
16a#
16b
=73
16a
16cc
16ee
16dd
16cc
16b
16a
16g
=74
8f#
8r
8ff#
8gg
=75
8aa
8bb
8ccc
8bb
=76
8aa
8r
8f#
8g
=77
8a
8b
8cc
8b
=78
4a
8r
8dd
=79
8dd
8dd
8dd
8dd
=80
4.gg
8ff#
=81
8b
8b
8b
8b
=82
4.ee
8dd
=83
8g
8g
8g
8g
=84
4cc
8r
8b
=85
4ee
8r
8g
=86
4f#
8r
8b-
=87
4a
8r
8B-
=88
4A
4r
=89
2r
=90
8r
16gg
16ccc
16bb
16ff#
16ee
16aa
=91
16gg
16dd
16cc
16ff#
16ee
16b
16a
16dd
=92
16cc
16g
16f#
16b
16a
16e
16d
16g
=93
8r
8ee
8dd
8a
=94
4g
8cc
8r
=95
8b
8r
8a
8r
=96
8g
8r
8cc
8cc
=97
8b
8b
8a
8a
=98
8dd
8r
8cc
8cc
=99
8b
8b
8a
8a
=100
8dd
8r
16cc
16dd
16ee
16cc
=101
16b
16cc
16dd
16b
16a
16b
16cc
16a
=102
16g
16gg
16bb
16aa
16gg
16ff#
16ee
16dd
=103
4cc#
8cc
8b
=104
8a
8r
16ee
16ccc
16bb
16ccc
=105
16dd
16bb
16aa
16bb
16dd
16aa
16gg
16aa
=106
16gg
16g
16b
16a
16g
16f#
16e
16d
=107
4c#
8c
8B
=108
8A
8r
16e
16cc
16b
16cc
=109
16d
16b
16a
16b
16d
16a
16g
16a
=110
16g
16d
16g
16b
16dd
16cc
16a
16f#
=111
16g
16gg
16dd
16b
16dd
16cc
16a
16f#
=112
4g
8r
*>B
8dd
=113
8dd
8dd
8dd
8dd
=114
4.gg
8ff#
=115
8b
8b
8b
8b
=116
4.ee
8dd
=117
8g
8g
8g
8g
=118
4.cc
8b
=119
2r
=120
8r
8ee
8ccc
8bb
=121
2r
=122
8r
8cc
8aa
8gg
=123
2r
=124
8r
8a
8ff
8ee
=125
8r
16aa
16dd#
8ccc
8aa
=126
8r
16gg#
16ee
8bb
8gg#
=127
8r
16aa
16dd#
8ccc
8aa
=128
8gg#
16ccc
16ee
16bb
16ee
16aa
16ee
=129
16gg#
16ee
16ccc
16ee
16bb
16ee
16aa
16ee
=130
16gg#
16ee
16aa
16ee
16bb
16ee
16ccc
16ee
=131
4bb
4ee
=132
4e
8r
8B
=133
2e
=134
2a
=135
8g
16b-
16a
16g
16f
16e
16d
=136
8c#
16e
16d
16c#
16A
16B
16c#
=137
2d
=138
2g
=139
8f
16a
16g
16f
16e
16d
16c
=140
8B
16d
16c
16B
16G
16A
16B
=141
2c
=142
2f
=143
2cc
=144
2ff
=145
16ee
16gg
16ff
16ee
16aa
16ff
16dd
16cc
=146
16b
16cc
16dd
16b
16a
16g
16f#
16g
=147
8r
8gg
8ff
8ee
=148
8r
8dd
8cc
8b
=149
8cc
8ee
8dd
8b
=150
16cc
16ee
16cc
16g
16f#
16g
16f
16g
=151
16e
16g
16c
16e
16d
16f
16B
16d
=152
4c
8r
8cc
=153
16ee
16cc
16gg
16ee
16bb-
16aa
16bb-
16gg
=154
16gg
16ff
16ee
16ff
16ee
16ff
16ee
16ff
=155
16ff
16cc
16aa
16ff
16ccc
16bb
16ccc
16aa
=156
16aa
16gg
16ff#
16gg
16ff#
16gg
16ff#
16gg
=157
16ccc
16bb
16aa
16gg
16ff
16ee
16dd
16cc
=158
16ee
16dd
16cc#
16dd
16ee
16dd
16cc#
16dd
=159
16dd
16ff
16aa
16gg
16ff
16ee
16dd
16cc
=160
8b
8r
8b
8cc
=161
8dd
8ee
8ff
8ee
=162
8dd
8r
8B
8c
=163
8d
8e
8f
8e
=164
4d
8r
8gg
=165
8gg
8gg
8gg
8gg
=166
4.ccc
8bb
=167
8ee
8ee
8ee
8ee
=168
4.aa
8gg
=169
8cc
8cc
8cc
8cc
=170
4ff
8r
8ee
=171
4aa
8r
8cc
=172
4b
8r
8ee-
=173
4dd
8r
8e-
=174
4d
4r
=175
2r
=176
8r
16cc
16ff
16ee
16b
16a
16dd
=177
16cc
16g
16f
16b
16a
16e
16d
16g
=178
16f
16c
16B
16e
16d
16A
16G
16c
=179
8r
8aa
8gg
8dd
=180
4cc
8ff
8r
=181
8ee
8r
8dd
8r
=182
8cc
8r
8ff
8ff
=183
8ee
8ee
8dd
8dd
=184
8gg
8r
8ff
8ff
=185
8ee
8ee
8dd
8dd
=186
8gg
8r
16ff
16gg
16aa
16ff
=187
16ee
16ff
16gg
16ee
16dd
16ee
16ff
16dd
=188
4cc
8r
8ee-
=189
4dd
8r
8e-
=190
4d
4r
=191
4r
8r
8gg
=192
8gg
8gg
8gg
8gg
=193
4.ccc
8bb
=194
4.aa
8gg
=195
4.ff
8ee
=196
2r
=197
8r
8ee
8ff#
8gg
=198
2r
=199
8r
8cc
8dd#
8ee
=200
2r
=201
8r
8a
8b
8cc
=202
8r
8aa
8gg
8dd
=203
16cc
16ccc
16eee
16ddd
16ccc
16bb
16aa
16gg
=204
4ff#
8ff
8ee
=205
8dd
8r
16a
16ff
16ee
16ff
=206
16g
16ee
16dd
16ee
16g
16dd
16cc
16dd
=207
16cc
16cc
16ee
16dd
16cc
16b
16a
16g
=208
4f#
8f
8e
=209
8d
8r
16A
16f
16e
16f
=210
16G
16e
16d
16e
16G
16d
16c
16d
=211
16c
16G
16c
16e
16g
16f
16d
16B
=212
16c
16g
16cc
16ee
16gg
16ff
16dd
16b
=213
4cc
4bb:
=214
4ccc:
8r
*>B
8dd
=215
8dd
8dd
8dd
8dd
=216
4.gg
8ff#
=217
8b
8b
8b
8b
=218
4.ee
8dd
=219
8g
8g
8g
8g
=220
4.cc
8b
=221
2r
=222
8r
8ee
8ccc
8bb
=223
2r
=224
8r
8cc
8aa
8gg
=225
2r
=226
8r
8a
8ff
8ee
=227
8r
16aa
16dd#
8ccc
8aa
=228
8r
16gg#
16ee
8bb
8gg#
=229
8r
16aa
16dd#
8ccc
8aa
=230
8gg#
16ccc
16ee
16bb
16ee
16aa
16ee
=231
16gg#
16ee
16ccc
16ee
16bb
16ee
16aa
16ee
=232
16gg#
16ee
16aa
16ee
16bb
16ee
16ccc
16ee
=233
4bb
4ee
=234
4e
8r
8B
=235
2e
=236
2a
=237
8g
16b-
16a
16g
16f
16e
16d
=238
8c#
16e
16d
16c#
16A
16B
16c#
=239
2d
=240
2g
=241
8f
16a
16g
16f
16e
16d
16c
=242
8B
16d
16c
16B
16G
16A
16B
=243
2c
=244
2f
=245
2cc
=246
2ff
=247
16ee
16gg
16ff
16ee
16aa
16ff
16dd
16cc
=248
16b
16cc
16dd
16b
16a
16g
16f#
16g
=249
8r
8gg
8ff
8ee
=250
8r
8dd
8cc
8b
=251
8cc
8ee
8dd
8b
=252
16cc
16ee
16cc
16g
16f#
16g
16f
16g
=253
16e
16g
16c
16e
16d
16f
16B
16d
=254
4c
8r
8cc
=255
16ee
16cc
16gg
16ee
16bb-
16aa
16bb-
16gg
=256
16gg
16ff
16ee
16ff
16ee
16ff
16ee
16ff
=257
16ff
16cc
16aa
16ff
16ccc
16bb
16ccc
16aa
=258
16aa
16gg
16ff#
16gg
16ff#
16gg
16ff#
16gg
=259
16ccc
16bb
16aa
16gg
16ff
16ee
16dd
16cc
=260
16ee
16dd
16cc#
16dd
16ee
16dd
16cc#
16dd
=261
16dd
16ff
16aa
16gg
16ff
16ee
16dd
16cc
=262
8b
8r
8b
8cc
=263
8dd
8ee
8ff
8ee
=264
8dd
8r
8B
8c
=265
8d
8e
8f
8e
=266
4d
8r
8gg
=267
8gg
8gg
8gg
8gg
=268
4.ccc
8bb
=269
8ee
8ee
8ee
8ee
=270
4.aa
8gg
=271
8cc
8cc
8cc
8cc
=272
4ff
8r
8ee
=273
4aa
8r
8cc
=274
4b
8r
8ee-
=275
4dd
8r
8e-
=276
4d
4r
=277
2r
=278
8r
16cc
16ff
16ee
16b
16a
16dd
=279
16cc
16g
16f
16b
16a
16e
16d
16g
=280
16f
16c
16B
16e
16d
16A
16G
16c
=281
8r
8aa
8gg
8dd
=282
4cc
8ff
8r
=283
8ee
8r
8dd
8r
=284
8cc
8r
8ff
8ff
=285
8ee
8ee
8dd
8dd
=286
8gg
8r
8ff
8ff
=287
8ee
8ee
8dd
8dd
=288
8gg
8r
16ff
16gg
16aa
16ff
=289
16ee
16ff
16gg
16ee
16dd
16ee
16ff
16dd
=290
4cc
8r
8ee-
=291
4dd
8r
8e-
=292
4d
4r
=293
4r
8r
8gg
=294
8gg
8gg
8gg
8gg
=295
4.ccc
8bb
=296
4.aa
8gg
=297
4.ff
8ee
=298
2r
=299
8r
8ee
8ff#
8gg
=300
2r
=301
8r
8cc
8dd#
8ee
=302
2r
=303
8r
8a
8b
8cc
=304
8r
8aa
8gg
8dd
=305
16cc
16ccc
16eee
16ddd
16ccc
16bb
16aa
16gg
=306
4ff#
8ff
8ee
=307
8dd
8r
16a
16ff
16ee
16ff
=308
16g
16ee
16dd
16ee
16g
16dd
16cc
16dd
=309
16cc
16cc
16ee
16dd
16cc
16b
16a
16g
=310
4f#
8f
8e
=311
8d
8r
16A
16f
16e
16f
=312
16G
16e
16d
16e
16G
16d
16c
16d
=313
16c
16G
16c
16e
16g
16f
16d
16B
=314
16c
16g
16cc
16ee
16gg
16ff
16dd
16b
=315
4cc
4bb:
=316
4ccc:
8r
==
*-
